resources/svg/xbox-line.svg

<svg fill="currentColor" viewBox="0 0 24 24" xmlns="http://www.w3.org/2000/svg"><path d="M4.79792 15.485C5.9215 12.9646 7.99755 10.0459 9.28514 8.5225C8.03654 7.277 7.12294 6.59163 6.46709 6.22278C4.94728 7.67896 4.00098 9.72897 4.00098 12C4.00098 13.2492 4.28731 14.4316 4.79792 15.485ZM8.84911 4.64483C10.4487 5.05101 12.001 5.95917 12.001 5.95917V5.95417C12.001 5.95417 13.5529 5.04965 15.1523 4.64461C14.1853 4.22973 13.1199 4 12.001 4C10.8818 4 9.81631 4.22982 8.84911 4.64483ZM17.5353 6.22317C16.8799 6.59249 15.9673 7.27806 14.7193 8.5225C16.0056 10.046 18.0809 12.9643 19.2045 15.484C19.7148 14.4309 20.001 13.2488 20.001 12C20.001 9.72917 19.0548 7.67933 17.5353 6.22317ZM17.9431 17.3565C16.5404 15.1202 13.8533 12.4122 12.001 11.0133C10.1504 12.4124 7.46222 15.1211 6.05981 17.3576C7.52394 18.9802 9.64336 20 12.001 20C14.3591 20 16.479 18.9797 17.9431 17.3565ZM12.001 22C6.47813 22 2.00098 17.5228 2.00098 12C2.00098 6.47715 6.47813 2 12.001 2C17.5238 2 22.001 6.47715 22.001 12C22.001 17.5228 17.5238 22 12.001 22Z"/></svg>

<svg xmlns="http://www.w3.org/2000/svg" viewBox="0 0 24 24" fill="currentColor">
    <g>
        <path fill="none" d="M0 0h24v24H0z"/>
        <path d="M4.797 15.485c1.124-2.52 3.2-5.44 4.487-6.962-1.248-1.246-2.162-1.931-2.818-2.3A7.977 7.977 0 0 0 4 12c0 1.25.286 2.432.797 3.485zm4.051-10.84C10.448 5.05 12 5.959 12 5.959v-.005s1.552-.904 3.151-1.31A7.974 7.974 0 0 0 12 4c-1.12 0-2.185.23-3.152.645zm8.686 1.578c-.655.37-1.568 1.055-2.816 2.3 1.287 1.523 3.362 4.441 4.486 6.961A7.968 7.968 0 0 0 20 12c0-2.27-.946-4.32-2.466-5.777zm.408 11.133c-1.403-2.236-4.09-4.944-5.942-6.343-1.85 1.4-4.539 4.108-5.941 6.345A7.98 7.98 0 0 0 12 20a7.98 7.98 0 0 0 5.942-2.644zM12 22C6.477 22 2 17.523 2 12S6.477 2 12 2s10 4.477 10 10-4.477 10-10 10z"/>
    </g>
</svg>
